X:1
T:Reel
T:from James E Frill's Musick Book  p. 1
Z:Sarah Gowan
R:Reel
M:4/4
K:D
D2DF A2AB| AFAB AFAB | D2 FA A2AB | AFFD GE E2 |
D2DF A2AB| AFAB A2 de | fefd BAdF | EDEF D2D2||
f2 ed dBAF | ABAF ABAF | f2 ed defa | dBAF AF E2|
f2 ed dBAG | DFAB d2 ef | aefd BAdF | EDEF D2D2|]
